public/img/binit-strategy/icons/icon-04.svg

<svg fill="none" height="34" viewBox="0 0 33 34" width="33" xmlns="http://www.w3.org/2000/svg" xmlns:xlink="http://www.w3.org/1999/xlink"><clipPath id="a"><path d="m0 0h32.8667v34h-32.8667z"/></clipPath><g clip-path="url(#a)"><path d="m31.0414 30.7764v-5.2758c0-.522.4089-.945.9135-.945s.9135.423.9135.945v7.5564c0 .522-.4089.945-.9135.945h-7.3044c-.5046 0-.9135-.423-.9135-.945s.4089-.945.9135-.945h5.0999l-5.7455-5.9436c-.3567-.369-.3567-.9666 0-1.3356s.9344-.369 1.2911 0zm-29.21612-27.55247v5.27577c0 .522-.4089.945-.913494.945-.504597 0-.91349498-.423-.91349498-.945v-7.554553c.00173999-.521997.41063798-.94499496.91523498-.94499496h7.304474c.5046 0 .9135.42299796.9135.94499496 0 .521993-.4089.944993-.9135.944993h-5.09991l5.74545 5.94357c.3567.36899.3567.96659 0 1.33559s-.93438.369-1.29107 0zm1.29107 28.88807h5.09991c.5046 0 .9135.423.9135.945s-.4089.945-.9135.945h-7.302734c-.504597 0-.91349499-.423-.91349499-.945v-7.5564c0-.522.40889799-.945.91349499-.945.504594 0 .913494.423.913494.945v5.2758l5.74545-5.9436c.35669-.369.93437-.369 1.29107 0s.3567.9666 0 1.3356l-5.74545 5.9436zm26.63405-30.22366h-5.0999c-.5046 0-.9135-.423-.9135-.944993 0-.521997.4089-.94499495.9135-.94499495h7.3044c.5046 0 .9135.42299795.9135.94499495v7.613953c0 .522-.4089.945-.9135.945s-.9135-.423-.9135-.945v-5.33517l-5.7454 5.94357c-.3567.369-.9344.369-1.2911 0s-.3567-.9666 0-1.33559l5.7455-5.94357z" fill="#fff"/><path d="m9.12967 14.1695c0-2.6028 2.03753-4.71595 4.55353-4.72315l5.4775-.0144c2.5334 0 4.5762 2.11495 4.5762 4.72315v5.6916c0 2.6082-2.0445 4.7232-4.5657 4.7232h-5.4775c-2.5213 0-4.56577-2.115-4.56577-4.7232v-5.6772z" stroke="#fff" stroke-miterlimit="10" stroke-width="2"/></g></svg>

<svg width="33" height="34" viewBox="0 0 33 34" fill="none" xmlns="http://www.w3.org/2000/svg">
<g clip-path="url(#clip0_824_25229)">
<path d="M31.0414 30.7764V25.5006C31.0414 24.9786 31.4503 24.5556 31.9549 24.5556C32.4595 24.5556 32.8684 24.9786 32.8684 25.5006V33.057C32.8684 33.579 32.4595 34.002 31.9549 34.002H24.6505C24.1459 34.002 23.737 33.579 23.737 33.057C23.737 32.535 24.1459 32.112 24.6505 32.112H29.7504L24.0049 26.1684C23.6482 25.7994 23.6482 25.2018 24.0049 24.8328C24.3616 24.4638 24.9393 24.4638 25.296 24.8328L31.0414 30.7764ZM1.82528 3.22393V8.4997C1.82528 9.0217 1.41638 9.4447 0.911786 9.4447C0.407189 9.4447 -0.00170898 9.0217 -0.00170898 8.4997V0.945147C3.10053e-05 0.42315 0.408929 0.00015204 0.913526 0.00015204H8.218C8.7226 0.00015204 9.1315 0.42315 9.1315 0.945147C9.1315 1.46714 8.7226 1.89014 8.218 1.89014H3.11809L8.86354 7.83371C9.22024 8.2027 9.22024 8.8003 8.86354 9.1693C8.50684 9.5383 7.92916 9.5383 7.57247 9.1693L1.82528 3.22393ZM3.11635 32.112H8.21626C8.72086 32.112 9.12976 32.535 9.12976 33.057C9.12976 33.579 8.72086 34.002 8.21626 34.002H0.913526C0.408929 34.002 3.10053e-05 33.579 3.10053e-05 33.057V25.5006C3.10053e-05 24.9786 0.408929 24.5556 0.913526 24.5556C1.41812 24.5556 1.82702 24.9786 1.82702 25.5006V30.7764L7.57247 24.8328C7.92916 24.4638 8.50684 24.4638 8.86354 24.8328C9.22024 25.2018 9.22024 25.7994 8.86354 26.1684L3.11809 32.112H3.11635ZM29.7504 1.88834H24.6505C24.1459 1.88834 23.737 1.46534 23.737 0.943347C23.737 0.42135 24.1459 -0.00164795 24.6505 -0.00164795H31.9549C32.4595 -0.00164795 32.8684 0.42135 32.8684 0.943347V8.5573C32.8684 9.0793 32.4595 9.5023 31.9549 9.5023C31.4503 9.5023 31.0414 9.0793 31.0414 8.5573V3.22213L25.296 9.1657C24.9393 9.5347 24.3616 9.5347 24.0049 9.1657C23.6482 8.7967 23.6482 8.1991 24.0049 7.83011L29.7504 1.88654V1.88834Z" fill="white"/>
<path d="M9.12967 14.1695C9.12967 11.5667 11.1672 9.45355 13.6832 9.44635L19.1607 9.43195C21.6941 9.43195 23.7369 11.5469 23.7369 14.1551V19.8467C23.7369 22.4549 21.6924 24.5699 19.1712 24.5699H13.6937C11.1724 24.5699 9.12793 22.4549 9.12793 19.8467V14.1695H9.12967Z" stroke="white" stroke-width="2" stroke-miterlimit="10"/>
</g>
<defs>
<clipPath id="clip0_824_25229">
<rect width="32.8667" height="34" fill="white"/>
</clipPath>
</defs>
</svg>
